packages/core/src/svgs/tokens/branded/MM.svg

<svg width="24" height="24" viewBox="0 0 24 24" fill="none" xmlns="http://www.w3.org/2000/svg">
<path fill-rule="evenodd" clip-rule="evenodd" d="M12 22C17.5229 22 22 17.5229 22 12C22 6.47705 17.5229 2 12 2C6.47705 2 2 6.47705 2 12C2 17.5229 6.47705 22 12 22ZM12 21.4117C17.1983 21.4117 21.4117 17.1983 21.4117 12C21.4117 6.80175 17.1983 2.58823 12 2.58823C6.80176 2.58823 2.58823 6.80175 2.58823 12C2.58823 17.1983 6.80176 21.4117 12 21.4117Z" fill="black"/>
<path fill-rule="evenodd" clip-rule="evenodd" d="M17.8824 7.29411V16.7058H17.2941V9.05881L14.9411 11.9429V16.7058H10.1971L14.353 11.62V9.1494L10.6506 13.7329L6.70591 9.14881V16.7058H6.11768V7.29411L10.653 12.6329L14.9411 7.29411V10.9153L17.8824 7.29411ZM14.353 12.6612L11.5177 16.1177H14.353V12.6612Z" fill="black"/>
</svg>

<svg xmlns="http://www.w3.org/2000/svg" width="24" height="24" fill="none" viewBox="0 0 24 24">
    <path fill="#000" fill-rule="evenodd" d="M12 22c5.523 0 10-4.477 10-10S17.523 2 12 2 2 6.477 2 12s4.477 10 10 10m0-.588A9.41 9.41 0 0 0 21.412 12 9.41 9.41 0 0 0 12 2.588 9.41 9.41 0 0 0 2.588 12 9.41 9.41 0 0 0 12 21.412" clip-rule="evenodd"/>
    <path fill="#000" fill-rule="evenodd" d="M17.882 7.294v9.412h-.588V9.059l-2.353 2.884v4.763h-4.744l4.156-5.086V9.15l-3.702 4.583-3.945-4.584v7.557h-.588V7.294l4.535 5.339 4.288-5.339v3.621zm-3.529 5.367-2.835 3.457h2.835z" clip-rule="evenodd"/>
</svg>
